X:302
T:Reel 302
M:4/4
K:Gmaj
L:1/8
 (3def |g2Bc dgaf|gefd ecdB|GcBd gedB|cBAB c2dc|Bcef gfga|bgaf gfed|egfa gedB|ABcd e2|ef|gfgb a2ga|bgfg edBd|gabc' d'e'd'c'|bc'd'b c'2dg|gabc' d'bab|c'bc'd' e'2d'c'|bgaf gedB|cBAB c2|dc|BBAB GBd2d2|GBdf g2dB|GBdf e2cB|AGAB AcBA|GBAG d2gf|eBec d2 (3def |gefd ecdB|cBAB c2|
